X: 40793
T: Town Of Cootehill, The
R: jig
M: 6/8
K: Gmajor
|:d/c/|BdB GBd|cec A2 G|FAF DEF|GFE D2 c|
B/c/dB G2 d|c/d/ec A2 G|F/G/AF DEF|G3- G2:|
|:B/c/|dGG eGG|dGG BAG|FAF DEF|GBe d2 ^c|
d2 G e2 G|dG/G/G BAG|FAF DEF|G3- G2:|

